**kern	**kern	**fb
*part1	*part1	*part1
*staff2	*staff1	*
*I"Piano	*	*
*clefF4	*clefG2	*
*k[f#c#]	*k[f#c#]	*
*M3/8	*M3/8	*
=1	=1	=1
4.r	8r	.
.	8r	.
.	8f#	.
=	=	=
8dL	8bL	6
8c#	8cc#	.
8BJ	8ddJ	.
=	=	=
.	8qqdd/	6
8A#XL	4cc#	.
8G#X	.	.
8F#J	8r	.
=	=	=
4.FF#	8cc#L	7 5 #3
.	8dd	.
.	8eeJ	.
=	=	=
16BBLL	16ddLL	5 3
16B	16cc#J	.
16A	8bJ	.
16G	.	.
16F#	8r	.
16EJJ	.	.
=	=	=
4D	8aL	.
.	8dd	.
8F#	8aJ	6
=	=	=
.	8qqa/	6
8GL	4b	.
8E	.	.
8F#J	8a	.
=	=	=
*-	*-	*-
!!!system-decoration: {(s1,s2)}
